public/img/Logo.svg

<svg width="60" height="60" viewBox="0 0 60 60" fill="none" xmlns="http://www.w3.org/2000/svg">
<path d="M39.3684 19.5217C39.3684 18.6933 38.6968 18.0217 37.8684 18.0217C37.04 18.0217 36.3684 18.6933 36.3684 19.5217H39.3684ZM42.5658 15.8152V17.3152H43.3705L43.8155 16.6448L42.5658 15.8152ZM44.5789 12.7826L45.9872 12.266L44.9672 9.48563L43.3292 11.953L44.5789 12.7826ZM46.9276 19.1848L45.5194 19.7014L47.0935 23.992L48.3681 19.6031L46.9276 19.1848ZM49.2763 11.0978L50.7191 10.6874L49.2912 5.66846L47.8358 10.6795L49.2763 11.0978ZM50.6184 15.8152L49.1757 16.2257L49.974 19.0316L51.7917 16.7498L50.6184 15.8152ZM51.9605 14.1304L53.3541 13.5754L52.3977 11.1743L50.7873 13.1958L51.9605 14.1304ZM52.6316 15.8152L51.238 16.3703L51.6144 17.3152H52.6316V15.8152ZM58 17.3152C58.8284 17.3152 59.5 16.6436 59.5 15.8152C59.5 14.9868 58.8284 14.3152 58 14.3152V17.3152ZM27.4737 0.5H17.3947V3.5H27.4737V0.5ZM14.8947 3V10.7717H17.8947V3H14.8947ZM15.3947 10.2717H8V13.2717H15.3947V10.2717ZM5.5 12.7717V22.2283H8.5V12.7717H5.5ZM8 24.7283H15.3947V21.7283H8V24.7283ZM14.8947 24.2283V32H17.8947V24.2283H14.8947ZM17.3947 34.5H27.4737V31.5H17.3947V34.5ZM29.9737 32V24.2283H26.9737V32H29.9737ZM29.4737 24.7283H36.8684V21.7283H29.4737V24.7283ZM39.3684 22.2283V19.5217H36.3684V22.2283H39.3684ZM26.9737 3V10.7717H29.9737V3H26.9737ZM29.4737 13.2717H36.8684V10.2717H29.4737V13.2717ZM36.3684 12.7717V14.8152H39.3684V12.7717H36.3684ZM38.8684 17.3152H42.5658V14.3152H38.8684V17.3152ZM43.8155 16.6448L45.8287 13.6122L43.3292 11.953L41.3161 14.9856L43.8155 16.6448ZM43.1707 13.2992L45.5194 19.7014L48.3359 18.6682L45.9872 12.266L43.1707 13.2992ZM48.3681 19.6031L50.7168 11.5162L47.8358 10.6795L45.4872 18.7664L48.3681 19.6031ZM47.8336 11.5083L49.1757 16.2257L52.0612 15.4048L50.7191 10.6874L47.8336 11.5083ZM51.7917 16.7498L53.1338 15.065L50.7873 13.1958L49.4452 14.8806L51.7917 16.7498ZM50.567 14.6855L51.238 16.3703L54.0251 15.2602L53.3541 13.5754L50.567 14.6855ZM52.6316 17.3152H58V14.3152H52.6316V17.3152ZM36.3684 14.8152C36.3684 16.1959 37.4877 17.3152 38.8684 17.3152V14.3152C39.1446 14.3152 39.3684 14.5391 39.3684 14.8152H36.3684ZM36.8684 13.2717C36.5923 13.2717 36.3684 13.0479 36.3684 12.7717H39.3684C39.3684 11.391 38.2491 10.2717 36.8684 10.2717V13.2717ZM36.8684 24.7283C38.2491 24.7283 39.3684 23.609 39.3684 22.2283H36.3684C36.3684 21.9521 36.5923 21.7283 36.8684 21.7283V24.7283ZM29.9737 24.2283C29.9737 24.5044 29.7498 24.7283 29.4737 24.7283V21.7283C28.093 21.7283 26.9737 22.8476 26.9737 24.2283H29.9737ZM27.4737 34.5C28.8544 34.5 29.9737 33.3807 29.9737 32H26.9737C26.9737 31.7239 27.1975 31.5 27.4737 31.5V34.5ZM14.8947 32C14.8947 33.3807 16.014 34.5 17.3947 34.5V31.5C17.6709 31.5 17.8947 31.7239 17.8947 32H14.8947ZM15.3947 24.7283C15.1186 24.7283 14.8947 24.5044 14.8947 24.2283H17.8947C17.8947 22.8476 16.7755 21.7283 15.3947 21.7283V24.7283ZM5.5 22.2283C5.5 23.609 6.61929 24.7283 8 24.7283V21.7283C8.27614 21.7283 8.5 21.9521 8.5 22.2283H5.5ZM8 10.2717C6.61929 10.2717 5.5 11.391 5.5 12.7717H8.5C8.5 13.0479 8.27614 13.2717 8 13.2717V10.2717ZM14.8947 10.7717C14.8947 10.4956 15.1186 10.2717 15.3947 10.2717V13.2717C16.7755 13.2717 17.8947 12.1524 17.8947 10.7717H14.8947ZM17.3947 0.5C16.014 0.5 14.8947 1.61929 14.8947 3H17.8947C17.8947 3.27614 17.6709 3.5 17.3947 3.5V0.5ZM26.9737 10.7717C26.9737 12.1524 28.093 13.2717 29.4737 13.2717V10.2717C29.7498 10.2717 29.9737 10.4956 29.9737 10.7717H26.9737ZM27.4737 3.5C27.1975 3.5 26.9737 3.27614 26.9737 3H29.9737C29.9737 1.61929 28.8544 0.5 27.4737 0.5V3.5Z" fill="url(#paint0_linear_65_1838)"/>
<path d="M11.178 42.4V55H8.892V49.42H3.582V55H1.314V42.4H3.582V47.746H8.892V42.4H11.178ZM22.2005 49.384C22.2005 49.588 22.1765 49.93 22.1285 50.41H15.5045C15.5645 51.442 15.8045 52.24 16.2245 52.804C16.6445 53.368 17.2145 53.65 17.9345 53.65C18.4265 53.65 18.8285 53.554 19.1405 53.362C19.4645 53.158 19.8305 52.768 20.2385 52.192C20.3105 52.084 20.4365 52.03 20.6165 52.03C20.9525 52.03 21.4145 52.24 22.0025 52.66C21.6665 53.476 21.1445 54.1 20.4365 54.532C19.7405 54.964 18.9065 55.18 17.9345 55.18C16.4825 55.18 15.3365 54.724 14.4965 53.812C13.6685 52.888 13.2545 51.628 13.2545 50.032C13.2545 48.448 13.6745 47.2 14.5145 46.288C15.3545 45.376 16.5065 44.92 17.9705 44.92C19.3145 44.92 20.3525 45.31 21.0845 46.09C21.8285 46.87 22.2005 47.968 22.2005 49.384ZM19.9865 49.078C19.9865 47.29 19.2965 46.396 17.9165 46.396C17.2325 46.396 16.6865 46.624 16.2785 47.08C15.8825 47.524 15.6365 48.19 15.5405 49.078H19.9865ZM24.1128 40.762H26.3088V55H24.1128V40.762ZM32.0252 55.18C31.3172 55.18 30.6752 55.096 30.0992 54.928C29.5352 54.76 29.0852 54.532 28.7492 54.244C28.4252 53.944 28.2632 53.614 28.2632 53.254C28.2632 52.978 28.3592 52.744 28.5512 52.552C28.7432 52.348 29.0132 52.228 29.3612 52.192C29.6612 52.696 30.0272 53.074 30.4592 53.326C30.9032 53.566 31.4492 53.686 32.0972 53.686C32.7212 53.686 33.1772 53.56 33.4652 53.308C33.7652 53.044 33.9152 52.696 33.9152 52.264C33.9152 51.868 33.7352 51.568 33.3752 51.364C33.0272 51.16 32.4812 50.95 31.7372 50.734C31.0532 50.53 30.4892 50.332 30.0452 50.14C29.6012 49.936 29.2232 49.636 28.9112 49.24C28.5992 48.844 28.4432 48.334 28.4432 47.71C28.4432 47.134 28.6112 46.636 28.9472 46.216C29.2952 45.784 29.7452 45.46 30.2972 45.244C30.8612 45.028 31.4612 44.92 32.0972 44.92C32.9372 44.92 33.6752 45.082 34.3112 45.406C34.9592 45.73 35.4692 46.174 35.8412 46.738C35.6852 46.99 35.4932 47.206 35.2652 47.386C35.0492 47.554 34.8512 47.638 34.6712 47.638C34.4672 47.638 34.2932 47.548 34.1492 47.368C33.5972 46.708 32.9252 46.378 32.1332 46.378C31.6292 46.378 31.2332 46.486 30.9452 46.702C30.6572 46.906 30.5132 47.224 30.5132 47.656C30.5132 47.944 30.6092 48.184 30.8012 48.376C30.9932 48.556 31.2272 48.7 31.5032 48.808C31.7912 48.916 32.1932 49.042 32.7092 49.186C33.3932 49.378 33.9512 49.57 34.3832 49.762C34.8272 49.942 35.2052 50.224 35.5172 50.608C35.8292 50.992 35.9852 51.502 35.9852 52.138C35.9852 53.098 35.6372 53.848 34.9412 54.388C34.2452 54.916 33.2732 55.18 32.0252 55.18ZM45.8861 45.1L42.0521 55.756C41.6801 56.824 41.2181 57.586 40.6661 58.042C40.1141 58.498 39.3881 58.726 38.4881 58.726C37.9361 58.726 37.4921 58.624 37.1561 58.42C36.8201 58.216 36.6521 57.946 36.6521 57.61C36.6521 57.442 36.6821 57.286 36.7421 57.142C36.8141 56.998 36.9281 56.842 37.0841 56.674C37.2161 56.77 37.3841 56.842 37.5881 56.89C37.8041 56.95 38.0201 56.98 38.2361 56.98C38.7041 56.98 39.0821 56.818 39.3701 56.494C39.6701 56.182 39.9401 55.63 40.1801 54.838L36.6521 45.1H38.9021L41.2961 52.174L43.6361 45.1H45.8861Z" fill="white"/>
<defs>
<linearGradient id="paint0_linear_65_1838" x1="-17.8289" y1="33" x2="48.0938" y2="-8.52923" gradientUnits="userSpaceOnUse">
<stop stop-color="white"/>
<stop offset="1" stop-color="#26FF3C"/>
</linearGradient>
</defs>
</svg>

<svg width="60" height="60" fill="none" xmlns="http://www.w3.org/2000/svg"><path d="M39.368 19.522a1.5 1.5 0 00-3 0h3zm3.198-3.707v1.5h.804l.446-.67-1.25-.83zm2.013-3.032l1.408-.517-1.02-2.78-1.638 2.467 1.25.83zm2.349 6.402l-1.409.516 1.575 4.291 1.274-4.389-1.44-.418zm2.348-8.087l1.443-.41-1.428-5.02-1.455 5.012 1.44.418zm1.342 4.717l-1.442.41.798 2.807 1.818-2.282-1.174-.935zm1.343-1.685l1.393-.555-.956-2.4-1.61 2.02 1.173.935zm.67 1.685l-1.393.555.376.945h1.018v-1.5zm5.369 1.5a1.5 1.5 0 000-3v3zM27.474.5h-10.08v3h10.08v-3zM14.894 3v7.772h3V3h-3zm.5 7.272H8v3h7.395v-3zm-9.894 2.5v9.456h3v-9.456h-3zM8 24.728h7.395v-3H8v3zm6.895-.5V32h3v-7.772h-3zm2.5 10.272h10.079v-3h-10.08v3zM29.974 32v-7.772h-3V32h3zm-.5-7.272h7.394v-3h-7.394v3zm9.894-2.5v-2.706h-3v2.706h3zM26.974 3v7.772h3V3h-3zm2.5 10.272h7.394v-3h-7.394v3zm6.894-.5v2.043h3v-2.043h-3zm2.5 4.543h3.698v-3h-3.698v3zm4.947-.67l2.014-3.033-2.5-1.659-2.013 3.033 2.5 1.659zm-.644-3.346l2.348 6.402 2.817-1.033-2.349-6.402-2.816 1.033zm5.197 6.304l2.349-8.087-2.881-.836-2.349 8.086 2.881.837zm-.534-8.095l1.342 4.718 2.885-.821-1.342-4.718-2.885.821zm3.958 5.242l1.342-1.685-2.347-1.87-1.342 1.686 2.347 1.869zm-1.225-2.065l.671 1.685 2.787-1.11-.67-1.685-2.788 1.11zm2.065 2.63H58v-3h-5.368v3zm-16.264-2.5a2.5 2.5 0 002.5 2.5v-3a.5.5 0 01.5.5h-3zm.5-1.543a.5.5 0 01-.5-.5h3a2.5 2.5 0 00-2.5-2.5v3zm0 11.456a2.5 2.5 0 002.5-2.5h-3a.5.5 0 01.5-.5v3zm-6.894-.5a.5.5 0 01-.5.5v-3a2.5 2.5 0 00-2.5 2.5h3zm-2.5 10.272a2.5 2.5 0 002.5-2.5h-3a.5.5 0 01.5-.5v3zM14.894 32a2.5 2.5 0 002.5 2.5v-3a.5.5 0 01.5.5h-3zm.5-7.272a.5.5 0 01-.5-.5h3a2.5 2.5 0 00-2.5-2.5v3zm-9.894-2.5a2.5 2.5 0 002.5 2.5v-3a.5.5 0 01.5.5h-3zM8 10.272a2.5 2.5 0 00-2.5 2.5h3a.5.5 0 01-.5.5v-3zm6.895.5a.5.5 0 01.5-.5v3a2.5 2.5 0 002.5-2.5h-3zM17.395.5a2.5 2.5 0 00-2.5 2.5h3a.5.5 0 01-.5.5v-3zm9.579 10.272a2.5 2.5 0 002.5 2.5v-3a.5.5 0 01.5.5h-3zm.5-7.272a.5.5 0 01-.5-.5h3a2.5 2.5 0 00-2.5-2.5v3z" fill="url(#paint0_linear_65_1838)"/><path d="M11.178 42.4V55H8.892v-5.58h-5.31V55H1.314V42.4h2.268v5.346h5.31V42.4h2.286zm11.023 6.984c0 .204-.024.546-.073 1.026h-6.623c.06 1.032.3 1.83.72 2.394.42.564.99.846 1.71.846.492 0 .893-.096 1.206-.288.324-.204.69-.594 1.098-1.17.072-.108.197-.162.377-.162.337 0 .799.21 1.387.63-.337.816-.858 1.44-1.567 1.872-.695.432-1.53.648-2.502.648-1.451 0-2.598-.456-3.438-1.368-.828-.924-1.242-2.184-1.242-3.78 0-1.584.42-2.832 1.26-3.744.84-.912 1.992-1.368 3.457-1.368 1.343 0 2.381.39 3.113 1.17.744.78 1.117 1.878 1.117 3.294zm-2.215-.306c0-1.788-.69-2.682-2.07-2.682-.683 0-1.23.228-1.637.684-.396.444-.643 1.11-.739 1.998h4.447zm4.127-8.316h2.196V55h-2.196V40.762zm7.912 14.418c-.708 0-1.35-.084-1.926-.252-.564-.168-1.014-.396-1.35-.684-.324-.3-.486-.63-.486-.99 0-.276.096-.51.288-.702.192-.204.462-.324.81-.36.3.504.666.882 1.098 1.134.444.24.99.36 1.638.36.624 0 1.08-.126 1.368-.378.3-.264.45-.612.45-1.044 0-.396-.18-.696-.54-.9-.348-.204-.894-.414-1.638-.63a15.59 15.59 0 01-1.692-.594 3.049 3.049 0 01-1.134-.9c-.312-.396-.468-.906-.468-1.53 0-.576.168-1.074.504-1.494a3.187 3.187 0 011.35-.972 4.99 4.99 0 011.8-.324c.84 0 1.578.162 2.214.486a3.853 3.853 0 011.53 1.332 2.484 2.484 0 01-.576.648c-.216.168-.414.252-.594.252-.204 0-.378-.09-.522-.27-.552-.66-1.224-.99-2.016-.99-.504 0-.9.108-1.188.324-.288.204-.432.522-.432.954 0 .288.096.528.288.72.192.18.426.324.702.432.288.108.69.234 1.206.378.684.192 1.242.384 1.674.576.444.18.822.462 1.134.846.312.384.468.894.468 1.53 0 .96-.348 1.71-1.044 2.25-.696.528-1.668.792-2.916.792zM45.886 45.1l-3.834 10.656c-.372 1.068-.834 1.83-1.386 2.286-.552.456-1.278.684-2.178.684-.552 0-.996-.102-1.332-.306-.336-.204-.504-.474-.504-.81 0-.168.03-.324.09-.468.072-.144.186-.3.342-.468.132.096.3.168.504.216.216.06.432.09.648.09.468 0 .846-.162 1.134-.486.3-.312.57-.864.81-1.656L36.652 45.1h2.25l2.394 7.074 2.34-7.074h2.25z" fill="#fff"/><defs><linearGradient id="paint0_linear_65_1838" x1="-17.829" y1="33" x2="48.094" y2="-8.529" gradientUnits="userSpaceOnUse"><stop stop-color="#fff"/><stop offset="1" stop-color="#26FF3C"/></linearGradient></defs></svg>
